X: 25644
T: Martin O'Connor's
R: polka
M: 2/4
K: Dmajor
|:FE E>G|FD D>E|FD dd/d/|dB BA|
FE E>G|FD D>E|FD de/d/|B2 BA:|
|:Fd dc/d/|fe e2|d2 de|dB c/B/A|
Fd dc/d/|fe e2|de/d/ cA|B2 BA:|

